img/new/favorite2.svg

<?xml version="1.0" encoding="UTF-8" standalone="no"?><!DOCTYPE svg PUBLIC "-//W3C//DTD SVG 1.1//EN" "http://www.w3.org/Graphics/SVG/1.1/DTD/svg11.dtd"><svg width="100%" height="100%" viewBox="0 0 2560 2560" version="1.1" xmlns="http://www.w3.org/2000/svg" xmlns:xlink="http://www.w3.org/1999/xlink" xml:space="preserve" xmlns:serif="http://www.serif.com/" style="fill-rule:evenodd;clip-rule:evenodd;stroke-linecap:round;stroke-linejoin:round;stroke-miterlimit:1.5;"><rect id="FAVORITE" x="0" y="0" width="2560" height="2560" style="fill:none;"/><g id="FAVORITE1" serif:id="FAVORITE"><path d="M1280,375.492l224.514,690.982l726.543,0.001l-587.786,427.05l224.514,690.983l-587.785,-427.05l-587.785,427.05l224.514,-690.983l-587.786,-427.05l726.543,-0.001l224.514,-690.982Z" style="fill:url(#_Linear1);stroke:url(#_Linear2);stroke-width:120px;"/></g><defs><linearGradient id="_Linear1" x1="0" y1="0" x2="1" y2="0" gradientUnits="userSpaceOnUse" gradientTransform="matrix(2000,0,0,2000,280,1375.49)"><stop offset="0" style="stop-color:#ffba7d;stop-opacity:1"/><stop offset="1" style="stop-color:#ffdf00;stop-opacity:1"/></linearGradient><linearGradient id="_Linear2" x1="0" y1="0" x2="1" y2="0" gradientUnits="userSpaceOnUse" gradientTransform="matrix(2000,0,0,2000,280,1375.49)"><stop offset="0" style="stop-color:#eca345;stop-opacity:1"/><stop offset="1" style="stop-color:#e2c83f;stop-opacity:1"/></linearGradient></defs></svg>

<?xml version="1.0" encoding="UTF-8" standalone="no"?>
<!DOCTYPE svg PUBLIC "-//W3C//DTD SVG 1.1//EN" "http://www.w3.org/Graphics/SVG/1.1/DTD/svg11.dtd">
<svg width="100%" height="100%" viewBox="0 0 2560 2560" version="1.1" xmlns="http://www.w3.org/2000/svg" xmlns:xlink="http://www.w3.org/1999/xlink" xml:space="preserve" xmlns:serif="http://www.serif.com/" style="fill-rule:evenodd;clip-rule:evenodd;stroke-linecap:round;stroke-linejoin:round;stroke-miterlimit:1.5;">
    <rect id="FAVORITE" x="0" y="0" width="2560" height="2560" style="fill:none;"/>
    <g transform="matrix(1.25593,0,0,1.25593,-327.596,-327.596)">
        <g id="FAVORITE1" serif:id="FAVORITE">
            <path d="M1280,375.492L1504.51,1066.47L2231.06,1066.47L1643.27,1493.53L1867.79,2184.51L1280,1757.46L692.215,2184.51L916.729,1493.53L328.943,1066.47L1055.49,1066.47L1280,375.492Z" style="fill:url(#_Linear1);stroke:url(#_Linear2);stroke-width:120px;"/>
        </g>
    </g>
    <defs>
        <linearGradient id="_Linear1" x1="0" y1="0" x2="1" y2="0" gradientUnits="userSpaceOnUse" gradientTransform="matrix(2000,0,0,2000,280,1375.49)"><stop offset="0" style="stop-color:rgb(255,186,125);stop-opacity:1"/><stop offset="1" style="stop-color:rgb(255,223,0);stop-opacity:1"/></linearGradient>
        <linearGradient id="_Linear2" x1="0" y1="0" x2="1" y2="0" gradientUnits="userSpaceOnUse" gradientTransform="matrix(2000,0,0,2000,280,1375.49)"><stop offset="0" style="stop-color:rgb(236,163,69);stop-opacity:1"/><stop offset="1" style="stop-color:rgb(226,200,63);stop-opacity:1"/></linearGradient>
    </defs>
</svg>
